X: 1384
T: Muhayyerkürdî Peşrev
C: Asdik Ağa
O: Turkey
F: http://compmusic.upf.edu/node/140
N: muhayyerkurdi--pesrev--devrikebir----asdik_aga
N: makam= muhayyerkurdi
N: form= pesrev
N: usul= devrikebir = 28/4
M: 28/4
L: 1/16
K: C _B   
Q: 1/4=78
%%MIDI tuningsystem comma53
g4 a4 a2bd' c'2b2  | a2bc' bag2 a3/2b/ag f4  | \
w:  1. HANE  |   | 
z2ga g2f2 g4 a4  | 
w:   | 
z2b4a2 g2a2 bc'ba  | a6gb agfe de(3fga  | 
w:   |   | 
b3a g3e f3/2e/fg a4  | f3e dgfe efef efed  | 
w:   |   | 
(3e2f2g2 (3a2g2f2 e3d (3dcd(3eed  | \
w:  TESLİM  | 
d4 c'/b/a/g/(3fed c3/2_2/4B/cd e3/2d/e^3/4f  | 
w:   | 
g2^3/4fg a4 e2=fg fed2  | cedc BAG2 d6cd  | \
w:   |   | 
efed cBAc B6AG  | 
w:   | 
(3A2B2c2 (3_e2d2c2 B2AG c2BA  | A6ef edcd e4  | \
w:   |  2. HANEYE  | 
d4 e4 z2a2 g2^3/4f2  | 
w:  2. HANE  | 
g2^3/4fe e4 z2c_3/4d c2_2/4B2  | c3_2/4B A4 z2AB G2A2  | \
w:   |   | 
z2_2/4Bc A2B2 z2cd c2de  | 
w:   | 
d2e4g2 ^3/4f3e d4  | z2c'2 _1/4b2a2 a2g2 g2^3/4f2  | \
w:   |   | 
^3/4f2ef g2^2/4fe e=fef efed  | 
w:   | 
(3e2f2g2 (3a2g2f2 e3d (3dcd(3eed  | \
w:  TESLİM  | 
d4 c'/b/a/g/(3fed c3/2_2/4B/cd e3/2d/e^3/4f  | 
w:   | 
g2^3/4fg a4 e2=fg fed2  | cedc BAG2 d6cd  | \
w:   |   | 
efed cBAc B6AG  | 
w:   | 
(3A2B2c2 (3_e2d2c2 B2AG c2BA  | A6c'2 _2/4b2_3/4d'2 c'4  | \
w:   |  3. HANEYE  | 
g4 c'2_2/4b2 c'6_3/4d'2  | 
w:  3. HANE  | 
c'2_3/4d'e' d'2c'_2/4b c'2_3/4b2 a4  | \
w:   | 
z2c'2 b2a2 b3a ^g2a2  | z2f^g f2ga g2a6  | 
w:   |   | 
a2_2/4b2 c'2_3/4b2 a4 g2^3/4f2  | \
w:   | 
z2ga g2^3/4f2 g3f g2a_2/4b  | (3c'2_2/4b2a2 (3g2^3/4f2g2 e6d2  | 
w:   |   | 
(3e2f2g2 (3a2g2f2 e3d (3dcd(3eed  | \
w:  TESLİM  | 
d4 c'/b/a/g/(3fed c3/2_2/4B/cd e3/2d/e^3/4f  | 
w:   | 
g2^3/4fg a4 e2=fg fed2  | cedc BAG2 d6cd  | \
w:   |   | 
efed cBAc B6AG  | 
w:   | 
(3A2B2c2 (3_e2d2c2 B2AG c2BA  | A6f2 e2g2 f2ed  | \
w:   |  4. HANEYE  | 
c4 f2e2 f6_7/8a2  | 
w:  4. HANE  | 
g2f2 e2_3/4d2 c6Ac  | B3A ^GcBA A6A2  | \
w:   |   | 
g2a4d'2 c'bag f2g/a/b/c'/  | 
w:   | 
d'2c'4ac' bagb a4  | z2c'b baag gffe fefg  | 
w:   |   | 
a4 fedf efef efed  | (3e2f2g2 (3a2g2f2 e3d (3dcd(3eed  | 
w:   |  TESLİM  | 
d4 c'/b/a/g/(3fed c3/2_2/4B/cd e3/2d/e^3/4f  | \
w:   | 
g2^3/4fg a4 e2=fg fed2  | 
w:   | 
cedc BAG2 d6cd  | efed cBAc B6AG  | 
w:   |   | 
(3A2B2c2 (3_e2d2c2 B2AG c2BA  | A12 z4  | |


